X:9401
T:Le Magicien III - bourree
C:Gilles Chabenat
N:abc transcription Simon Wascher
N:if you find an error in this transcription please inform simon.wascher@chello.at
M:3/8
L:1/16
K:D
d2c2FG|A2B2A2|E2G2F2|A2E2F2|
d2c2FG|A2GAB2|E2G2B2|c4A2:|
|:d2Bcde|A2F2A2|B2d2e2|f2e2dc|
d2Bcde|A2F2A2|B2d2e2|f4e2:|


